static/svg/src/linkedin.svg

<?xml version="1.0" encoding="UTF-8"?>
<svg width="30px" height="30px" viewBox="0 0 30 30" version="1.1" xmlns="http://www.w3.org/2000/svg" xmlns:xlink="http://www.w3.org/1999/xlink">
    <title>1384046</title>
    <g id="Page-1" stroke="none" stroke-width="1" fill="none" fill-rule="evenodd">
        <g id="Homepage" transform="translate(-803.000000, -679.000000)" fill="#FFFFFF" fill-rule="nonzero">
            <g id="Group-5" transform="translate(733.000000, 28.000000)">
                <g id="Menu-uitklap" transform="translate(0.000000, 76.000000)">
                    <g id="1384046" transform="translate(70.000000, 575.000000)">
                        <path d="M27.83638,0 L2.16361998,0 C0.96862793,0 0,0.96862793 0,2.16361998 L0,27.83638 C0,29.0313721 0.96862793,30 2.16361998,30 L27.83638,30 C29.0313721,30 30,29.0313721 30,27.83638 L30,2.16361998 C30,0.96862793 29.0313721,0 27.83638,0 Z M10.6411743,22.6757812 L6.98799135,22.6757812 L6.98799135,11.6851044 L10.6411743,11.6851044 L10.6411743,22.6757812 Z M8.81469727,10.1843262 L8.79089355,10.1843262 C7.56500244,10.1843262 6.77215576,9.34043883 6.77215576,8.28575133 C6.77215576,7.20726012 7.58926395,6.38671875 8.83895871,6.38671875 C10.0886536,6.38671875 10.8576966,7.20726012 10.8815003,8.28575133 C10.8815003,9.34043883 10.0886536,10.1843262 8.81469727,10.1843262 Z M23.8137817,22.6757812 L20.1610565,22.6757812 L20.1610565,16.7960358 C20.1610565,15.3183746 19.6321106,14.3106079 18.310318,14.3106079 C17.301178,14.3106079 16.7001343,14.990387 16.4360046,15.6465912 C16.3394165,15.881424 16.3158417,16.2096405 16.3158417,16.5380859 L16.3158417,22.6757812 L12.6628876,22.6757812 C12.6628876,22.6757812 12.7107239,12.7162171 12.6628876,11.6851044 L16.3158417,11.6851044 L16.3158417,13.241272 C16.8013001,12.4923706 17.6699066,11.4271546 19.608078,11.4271546 C22.0115661,11.4271546 23.8137817,12.9979706 23.8137817,16.3737488 L23.8137817,22.6757812 Z" id="Shape"></path>
                    </g>
                </g>
            </g>
        </g>
    </g>
</svg>

<svg width="30" height="30" xmlns="http://www.w3.org/2000/svg"><path d="M27.836 0H2.164A2.164 2.164 0 000 2.164v25.672C0 29.031.969 30 2.164 30h25.672A2.164 2.164 0 0030 27.836V2.164A2.164 2.164 0 0027.836 0zM10.641 22.676H6.988v-10.99h3.653v10.99zM8.815 10.184H8.79c-1.226 0-2.019-.844-2.019-1.898 0-1.079.817-1.9 2.067-1.9 1.25 0 2.019.821 2.043 1.9 0 1.054-.793 1.898-2.067 1.898zm14.999 12.492H20.16v-5.88c0-1.478-.529-2.485-1.85-2.485-1.01 0-1.61.68-1.875 1.336-.097.234-.12.563-.12.891v6.138h-3.653s.048-9.96 0-10.99h3.653v1.555c.485-.749 1.354-1.814 3.292-1.814 2.404 0 4.206 1.571 4.206 4.947v6.302z" fill="#FFF" fill-rule="nonzero"/></svg>
